X:83
T:A glezele l'chaym
O:klezmer
M:4/4
L:1/8
Q:1/4=
K:F
V:1
A,|"Dm" D DD DA, D2 E|"Bb" F G"A" F E"Dm" D zF G|"F" A2 FG AA FG |
"D" A6 zD |"Gm" GG GG DG2 A|"Eb" B c"D7" B A"Gm" G2 Bc |"Bb" d2 Bc dd cB |
"F" A6 zA |"D" dd dd d2 AA |"D7" dc BA "Gm" G/A/B zG/G/ |"C" cc cc c2 GG |
cB AG "A" FG HFE |"Dm" DD DD A,D2 E|"Bb" F G"A" F E"Dm" D zF G|"F" A2 GA "Gm" cB "A" AG |
"Dm" D6 z|]





